X:1
T:Title
%%score { ( 1 3 ) | 2 }
L:1/8
M:4/4
K:F
V:1 treble nm="Grand Piano"
V:3 treble 
V:2 bass 
V:1
 z4 z2[Q:1/4=100] AA | B2 A2 C2 A2 | [CFA]2 [B,EG]4 [B,EG][B,EG] | [CEA]2 [B,EG]2 [G,C]2 [Ec]2 | %4
[M:3/4] c6 |[M:1/4] cc |[M:4/4] d2 c2 A2 [DAc]2 | [DAc]2 [DGB]4 [DF][^CFG] | %8
 [CFA]2 [A,C]2 [B,EG]3 F |[M:3/4] F6 |[M:1/4] cc |[M:4/4] [Ec]2 z2 z4 | [CFA]2 [A,F]4 [CFc][CFc] | %13
 [Fd]2 [CFc]2 [DGB]2 [D^FA]2 |[M:3/4] [DGB]6 |[M:1/4] [DBd][Bf] |[M:4/4] [Be]2 [Bd]2 [Ac]2 [GB]2 | %17
 [FA]2 [Fc]4 [Dc][^CB] | [CA]2[K:bass] z2[K:treble] z4 |[M:3/4] [A,F]6 |] %20
V:2
 z4 z2 [F,CF][F,CF] | [F,DF]2 [F,CF]2 [F,A,]2 [F,CF]2 | C,2 C,4 C,C, | C,2 C,2 E,2 [C,B,]2 | %4
[M:3/4][K:treble] [F,A,F]6 |[M:1/4] [A,CF][A,CF] |[M:4/4] [B,F]2 [A,CF]2[K:bass] [F,CF]2 D,2 | %7
 G,2 G,4 B,,B,, | C,2 C,2 C,3 [F,A,] |[M:3/4] [F,A,]6 |[M:1/4] [F,A,F][F,A,F] | %11
[M:4/4] [C,G,]C, C,2 C,2 C,2 | F,2 F,4 A,A, | B,B, A,2 G,2 D,2 |[M:3/4] G,6 |[M:1/4] G,[G,D] | %16
[M:4/4] [C,C][C,C] [C,C]2 [C,C]2 [E,C]2 | [F,C]2 [F,A,]4 [B,,B,][B,,F,] | [C,F,]C, C,2 C,3 F, | %19
[M:3/4] F,6 |] %20
V:3
 x8 | x8 | x8 | x8 |[M:3/4] x6 |[M:1/4] x2 |[M:4/4] x8 | x8 | x8 |[M:3/4] x6 |[M:1/4] x2 | %11
[M:4/4] z G, [B,EG]2 [A,CF]2 [CEG]2 | x8 | x8 |[M:3/4] x6 |[M:1/4] x2 |[M:4/4] x8 | x8 | %18
 z[K:bass] F, [A,C]2[K:treble] [B,EG]3 [A,F] |[M:3/4] x6 |] %20

